src/access/icon/containers/thermo.svg

<svg width="68" height="18" viewBox="0 0 68 18" fill="none" xmlns="http://www.w3.org/2000/svg">
<path d="M1.19287 1.19995H66.8069V16.8H1.19287V1.19995Z" stroke="#A8A8A8" stroke-width="2" stroke-miterlimit="10" stroke-linecap="round"/>
<path d="M33.3185 13.1777C35.4093 13.1777 36.6744 12.2897 37.5529 10.9755L35.2864 9.3238C34.7593 9.94541 34.2849 10.3361 33.4942 10.3361C32.3697 10.3361 31.5967 9.39485 31.5967 8.15164C31.5967 6.94396 32.3346 5.98492 33.5469 5.98492C34.2673 5.98492 34.812 6.28684 35.2688 6.9262L37.5002 5.29227C36.692 3.99579 35.3918 3.14331 33.4415 3.14331C30.437 3.14331 28.3462 5.43436 28.3462 8.15164C28.3462 10.9045 30.4546 13.1777 33.3185 13.1777Z" fill="#A8A8A8"/>
<path d="M38.3455 7.60998C39.018 7.60998 39.5631 7.05894 39.5631 6.37921C39.5631 5.69947 39.018 5.14844 38.3455 5.14844C37.6731 5.14844 37.1279 5.69947 37.1279 6.37921C37.1279 7.05894 37.6731 7.60998 38.3455 7.60998Z" stroke="#A8A8A8" stroke-miterlimit="10" stroke-linecap="round"/>
</svg>

<svg xmlns="http://www.w3.org/2000/svg" width="68" height="18" fill="none" viewBox="0 0 68 18">
  <g class="thermo">
    <g class="fill">
      <path fill="#A8A8A8" d="M33.318 13.178c2.091 0 3.356-.888 4.235-2.203l-2.267-1.651c-.527.621-1.001 1.012-1.792 1.012-1.124 0-1.898-.941-1.898-2.184 0-1.208.738-2.167 1.95-2.167.721 0 1.266.302 1.723.941l2.23-1.634c-.807-1.296-2.108-2.149-4.058-2.149-3.004 0-5.095 2.291-5.095 5.009 0 2.753 2.108 5.026 4.972 5.026z"/>
    </g>
    <g class="stroke">
      <path stroke="#A8A8A8" stroke-linecap="round" stroke-miterlimit="10" stroke-width="2" d="M1.193 1.2h65.614v15.6H1.193V1.2z"/>
      <path stroke="#A8A8A8" stroke-linecap="round" stroke-miterlimit="10" d="M38.346 7.61c.672 0 1.217-.551 1.217-1.23 0-.68-.545-1.232-1.218-1.232-.672 0-1.217.551-1.217 1.231s.545 1.231 1.218 1.231z"/>
    </g>
  </g>
</svg>
